images/contacts/telephone.svg

<svg width="62" height="62" viewBox="0 0 62 62" fill="none" xmlns="http://www.w3.org/2000/svg">
<rect width="62" height="62" fill="white"/>
<path d="M57.6954 2H35.3996C34.8979 2 34.4914 2.40649 34.4914 2.90816C34.4914 3.40982 34.8979 3.81631 35.3996 3.81631H57.6954C59.0675 3.81631 60.1838 4.93262 60.1838 6.30467V29.6904C60.1838 31.0625 59.0675 32.1788 57.6954 32.1788H54.1343C53.9429 32.1788 53.7565 32.2392 53.6016 32.3515L47.4091 36.8367V33.087C47.4091 32.5853 47.0026 32.1788 46.5009 32.1788H26.789C25.4169 32.1788 24.3007 31.0625 24.3007 29.6904V6.30467C24.3007 4.93262 25.417 3.81631 26.789 3.81631H31.4424C31.9441 3.81631 32.3506 3.40982 32.3506 2.90816C32.3506 2.40649 31.9441 2 31.4424 2H26.789C24.4154 2 22.4844 3.93098 22.4844 6.30467V29.6904C22.4844 32.0641 24.4155 33.9951 26.789 33.9951H45.5927V38.6158C45.5927 38.957 45.7841 39.2694 46.088 39.4247C46.4101 39.5782 46.7253 39.5538 47.0337 39.3514L54.4286 33.9952H57.6954C60.0691 33.9952 62.0001 32.0642 62.0001 29.6906V6.30467C62.0001 3.93111 60.069 2 57.6954 2Z" fill="#CB8734"/>
<path d="M52.7452 50.0021C52.5558 48.6486 51.7591 47.4979 50.5571 46.843L46.5186 44.6427C46.0782 44.4023 45.5266 44.5651 45.2866 45.0058C45.0469 45.4462 45.2094 45.9978 45.6499 46.2376L49.6879 48.4378C50.3789 48.8142 50.8367 49.475 50.9462 50.2523C50.9468 50.2573 50.9474 50.2622 50.9481 50.2671C51.054 51.0522 50.7868 51.8181 50.2153 52.3676L49.62 52.9391L34.711 44.5501L36.4631 43.0088C37.2106 42.3512 38.2987 42.2298 39.1716 42.7066L41.6914 44.0799C42.1318 44.3197 42.6834 44.1575 42.9235 43.717C43.1634 43.2766 43.0011 42.725 42.5606 42.4849L40.0414 41.112C38.5019 40.2714 36.5815 40.4854 35.2636 41.6449L31.1804 45.2365C30.3441 45.9721 29.1234 46.0404 28.2122 45.4021C22.0619 41.0935 17.5956 36.3534 14.558 30.9116C14.0458 29.9928 14.1889 28.8596 14.9139 28.0921L18.1459 24.6736C19.3511 23.3976 19.6336 21.486 18.849 19.9167L13.41 9.03868C12.804 7.82526 11.6912 6.98939 10.357 6.74528C9.02186 6.50068 7.68445 6.88901 6.68717 7.80988L4.62141 9.71835C2.33794 11.8277 0.82677 14.5556 0.251361 17.6067C-0.325137 20.663 0.0944319 23.746 1.46454 26.5235C1.47059 26.5363 1.47628 26.5475 1.48101 26.5567C2.3492 28.3124 3.288 30.0293 4.26953 31.6569C4.43336 31.9308 4.61003 32.2202 4.79433 32.5172C5.0589 32.9432 5.61869 33.0742 6.04492 32.8098C6.47103 32.5452 6.60205 31.9853 6.33759 31.5592C6.1585 31.2706 5.98704 30.9897 5.8266 30.7216C4.87049 29.1362 3.95725 27.4662 3.11218 25.7577C3.10746 25.7478 3.10261 25.7381 3.09765 25.7284C0.710284 20.8979 1.77694 14.9708 5.67802 11.2218L13.868 26.5546L13.5938 26.8447C12.3213 28.1917 12.0712 30.1817 12.9717 31.7966C16.1461 37.4835 20.7902 42.4205 27.1701 46.8899C27.9025 47.4028 28.7482 47.6558 29.5911 47.6558C30.5897 47.6558 31.5841 47.3003 32.38 46.6003L33.266 45.821L48.2516 54.253L48.2365 54.2676C44.3738 57.9787 38.5873 58.8233 33.838 56.369C23.5437 51.048 15.175 44.014 8.96459 35.463C8.66974 35.0571 8.10184 34.9669 7.69607 35.2619C7.29019 35.5568 7.20022 36.1245 7.49495 36.5304C13.8734 45.3127 22.4558 52.5303 33.0039 57.9829C35.0802 59.0557 37.3285 59.5784 39.5621 59.5784C43.1808 59.5784 46.7594 58.2056 49.4944 55.5779L51.4735 53.6775C52.4606 52.7283 52.9256 51.4091 52.7518 50.0536C52.7501 50.0363 52.7478 50.0193 52.7452 50.0021ZM7.05431 9.94345L7.9196 9.14415C8.49307 8.61463 9.26198 8.39171 10.03 8.53193C10.797 8.67227 11.4367 9.15275 11.7852 9.85069L17.2245 20.7292C17.6693 21.619 17.509 22.7029 16.8258 23.4262L15.1838 25.163L7.05431 9.94345Z" fill="#CB8734"/>
<path d="M54.6796 18.8583C54.6796 17.1091 53.2564 15.6859 51.5072 15.6859C49.7581 15.6859 48.335 17.1091 48.335 18.8583C48.335 20.6074 49.7581 22.0305 51.5072 22.0305C53.2564 22.0305 54.6796 20.6074 54.6796 18.8583ZM50.1512 18.8583C50.1512 18.1106 50.7594 17.5022 51.5071 17.5022C52.2548 17.5022 52.8632 18.1106 52.8632 18.8583C52.8632 19.606 52.2548 20.2142 51.5071 20.2142C50.7594 20.2142 50.1512 19.606 50.1512 18.8583Z" fill="#CB8734"/>
<path d="M45.4149 18.8583C45.4149 17.1091 43.9918 15.6859 42.2427 15.6859C40.4935 15.6859 39.0703 17.1091 39.0703 18.8583C39.0703 20.6074 40.4935 22.0305 42.2427 22.0305C43.9918 22.0305 45.4149 20.6074 45.4149 18.8583ZM40.8865 18.8583C40.8865 18.1106 41.4948 17.5022 42.2426 17.5022C42.9903 17.5022 43.5985 18.1106 43.5985 18.8583C43.5985 19.606 42.9903 20.2142 42.2426 20.2142C41.4948 20.2142 40.8865 19.606 40.8865 18.8583Z" fill="#CB8734"/>
<path d="M29.8057 18.8583C29.8057 20.6074 31.2287 22.0305 32.978 22.0305C34.7274 22.0305 36.1504 20.6074 36.1504 18.8583C36.1504 17.1091 34.7273 15.6859 32.978 15.6859C31.2288 15.6859 29.8057 17.1091 29.8057 18.8583ZM32.978 17.5022C33.7258 17.5022 34.3341 18.1106 34.3341 18.8583C34.3341 19.606 33.7258 20.2142 32.978 20.2142C32.2303 20.2142 31.6221 19.606 31.6221 18.8583C31.6221 18.1106 32.2303 17.5022 32.978 17.5022Z" fill="#CB8734"/>
</svg>

<svg width="62" height="62" fill="none" xmlns="http://www.w3.org/2000/svg"><path fill="#fff" d="M0 0h62v62H0z"/><path d="M57.695 2H35.4a.908.908 0 1 0 0 1.816h22.295a2.491 2.491 0 0 1 2.489 2.489V29.69a2.491 2.491 0 0 1-2.489 2.489h-3.56a.907.907 0 0 0-.533.172l-6.193 4.486v-3.75a.908.908 0 0 0-.908-.908H26.789a2.491 2.491 0 0 1-2.488-2.489V6.305a2.491 2.491 0 0 1 2.488-2.489h4.653a.908.908 0 1 0 0-1.816H26.79a4.31 4.31 0 0 0-4.305 4.305V29.69a4.31 4.31 0 0 0 4.305 4.305h18.804v4.62c0 .342.191.654.495.81.322.153.637.129.946-.074l7.395-5.356h3.266A4.31 4.31 0 0 0 62 29.691V6.305A4.31 4.31 0 0 0 57.695 2z" fill="#CB8734"/><path d="M52.745 50.002a4.232 4.232 0 0 0-2.188-3.159l-4.038-2.2a.908.908 0 1 0-.87 1.595l4.039 2.2a2.433 2.433 0 0 1 1.26 1.83 2.435 2.435 0 0 1-.733 2.1l-.595.571-14.909-8.389 1.752-1.541a2.383 2.383 0 0 1 2.709-.302l2.52 1.373a.908.908 0 0 0 .869-1.595l-2.52-1.373a4.206 4.206 0 0 0-4.777.533l-4.084 3.591a2.399 2.399 0 0 1-2.968.166c-6.15-4.309-10.616-9.049-13.654-14.49a2.394 2.394 0 0 1 .356-2.82l3.232-3.418a4.21 4.21 0 0 0 .703-4.757L13.41 9.039a4.236 4.236 0 0 0-3.053-2.294 4.238 4.238 0 0 0-3.67 1.065L4.621 9.718a14.264 14.264 0 0 0-4.37 7.889 14.096 14.096 0 0 0 1.23 8.95 70.024 70.024 0 0 0 3.313 5.96.908.908 0 0 0 1.544-.958 68.207 68.207 0 0 1-3.24-5.83C.71 20.897 1.777 14.97 5.678 11.221l8.19 15.333-.274.29a4.203 4.203 0 0 0-.622 4.952C16.146 37.483 20.79 42.42 27.17 46.89a4.212 4.212 0 0 0 5.21-.29l.886-.779 14.986 8.432-.016.015a12.499 12.499 0 0 1-14.398 2.101C23.544 51.048 15.175 44.014 8.965 35.463a.908.908 0 1 0-1.47 1.067c6.378 8.783 14.96 16 25.509 21.453a14.267 14.267 0 0 0 6.558 1.595c3.619 0 7.197-1.372 9.932-4l1.98-1.9a4.233 4.233 0 0 0 1.271-3.676zM7.055 9.943l.865-.799a2.439 2.439 0 0 1 2.11-.612c.767.14 1.407.62 1.755 1.319l5.44 10.878c.444.89.284 1.974-.4 2.697l-1.641 1.737-8.13-15.22zM54.68 18.858a3.176 3.176 0 0 0-3.173-3.172 3.176 3.176 0 0 0-3.172 3.172 3.176 3.176 0 0 0 3.172 3.172 3.176 3.176 0 0 0 3.173-3.172zm-4.529 0c0-.747.608-1.356 1.356-1.356.748 0 1.356.609 1.356 1.356 0 .748-.608 1.356-1.356 1.356a1.357 1.357 0 0 1-1.356-1.356zM45.415 18.858a3.176 3.176 0 0 0-3.172-3.172 3.176 3.176 0 0 0-3.173 3.172 3.176 3.176 0 0 0 3.173 3.172 3.176 3.176 0 0 0 3.172-3.172zm-4.529 0a1.358 1.358 0 0 1 2.712 0c0 .748-.608 1.356-1.355 1.356a1.357 1.357 0 0 1-1.357-1.356zM29.806 18.858a3.176 3.176 0 0 0 3.172 3.172 3.176 3.176 0 0 0 3.172-3.172 3.176 3.176 0 0 0-3.172-3.172 3.176 3.176 0 0 0-3.172 3.172zm3.172-1.356c.748 0 1.356.609 1.356 1.356 0 .748-.608 1.356-1.356 1.356a1.357 1.357 0 0 1-1.356-1.356c0-.747.608-1.356 1.356-1.356z" fill="#CB8734"/></svg>
